; generated by PrusaSlicer 2.3.3+win64 on 2023-02-13 at 21:38:53 UTC

; 

; external perimeters extrusion width = 0.45mm
; perimeters extrusion width = 0.45mm
; infill extrusion width = 0.45mm
; solid infill extrusion width = 0.45mm
; top infill extrusion width = 0.40mm
; first layer extrusion width = 0.42mm

M201 X500 Y500 Z100 E5000 ; sets maximum accelerations, mm/sec^2
M203 X500 Y500 Z10 E60 ; sets maximum feedrates, mm/sec
M204 P500 R1000 T500 ; sets acceleration (P, T) and retract acceleration (R), mm/sec^2
M205 X8.00 Y8.00 Z0.40 E5.00 ; sets the jerk limits, mm/sec
M205 S0 T0 ; sets the minimum extruding and travel feed rate, mm/sec
M107
;TYPE:Custom
G90 ; use absolute coordinates
M83 ; extruder relative mode
M140 S60 ; set final bed temp
M104 S150 ; set temporary nozzle temp to prevent oozing during homing and auto bed leveling
G4 S10 ; allow partial nozzle warmup
G28 ; home all axis
G29 ; auto bed levelling
G1 Z50 F240
G1 X2 Y10 F3000
M104 S210 ; set final nozzle temp
M190 S60 ; wait for bed temp to stabilize
M109 S210 ; wait for nozzle temp to stabilize
G1 Z0.28 F240
G92 E0
G1 Y140 E10 F1500 ; prime the nozzle
G1 X2.3 F5000
G92 E0
G1 Y10 E10 F1200 ; prime the nozzle
G92 E0
G21 ; set units to millimeters
G90 ; use absolute coordinates
M83 ; use relative distances for extrusion
; Filament gcode
;LAYER_CHANGE
;Z:0.2
;HEIGHT:0.2
;BEFORE_LAYER_CHANGE
G92 E0
;0.2


G1 E-5.00000 F3600.000
G1 Z0.200 F9000.000
;AFTER_LAYER_CHANGE
;0.2
G1 X66.437 Y88.107
G1 E5.00000 F2400.000
M204 S500
;TYPE:Skirt
;WIDTH:0.42
G1 F1200.000
G1 X67.484 Y87.446 E0.03884
G1 X68.671 Y86.888 E0.04111
G1 X69.880 Y86.496 E0.03984
G1 X71.137 Y86.257 E0.04012
G1 X72.373 Y86.176 E0.03884
G1 X158.581 Y86.112 E2.70298
G1 X160.462 Y86.288 E0.05924
G1 X162.302 Y86.815 E0.06003
G1 X164.009 Y87.672 E0.05989
G1 X165.530 Y88.835 E0.06003
G1 X166.808 Y90.261 E0.06003
G1 X167.796 Y91.895 E0.05989
G1 X168.465 Y93.689 E0.06003
G1 X168.786 Y95.544 E0.05904
G1 X168.819 Y134.650 E1.22614
G1 X168.747 Y135.845 E0.03752
G1 X168.512 Y137.130 E0.04096
G1 X168.151 Y138.280 E0.03779
G1 X167.628 Y139.435 E0.03978
G1 X167.203 Y140.164 E0.02644
G1 X166.502 Y141.133 E0.03751
G1 X165.632 Y142.069 E0.04007
G1 X164.664 Y142.882 E0.03964
G1 X163.595 Y143.574 E0.03992
G1 X162.444 Y144.130 E0.04007
G1 X161.233 Y144.537 E0.04007
G1 X159.981 Y144.791 E0.04007
G1 X158.711 Y144.887 E0.03993
G1 X72.197 Y144.884 E2.71258
G1 X70.986 Y144.786 E0.03809
G1 X69.666 Y144.508 E0.04231
G1 X68.070 Y143.915 E0.05336
G1 X66.944 Y143.297 E0.04027
G1 X65.851 Y142.501 E0.04240
G1 X64.929 Y141.626 E0.03985
G1 X64.112 Y140.630 E0.04042
G1 X63.450 Y139.582 E0.03886
G1 X62.892 Y138.394 E0.04113
G1 X62.504 Y137.194 E0.03956
G1 X62.263 Y135.937 E0.04013
G1 X62.183 Y134.741 E0.03757
G1 X62.211 Y95.642 E1.22593
G1 X62.386 Y94.383 E0.03984
G1 X62.716 Y93.152 E0.03998
G1 X63.197 Y91.971 E0.03998
G1 X63.819 Y90.863 E0.03984
G1 X64.579 Y89.833 E0.04012
G1 X65.451 Y88.916 E0.03969
G1 X66.391 Y88.145 E0.03810
G1 E-3.50000 F3600.000
;WIPE_START
G1 F7200.000
G1 X67.484 Y87.446 E-0.61673
G1 X68.671 Y86.888 E-0.62286
G1 X69.042 Y86.768 E-0.18542
;WIPE_END
G1 E-0.07500 F3600.000
G1 X80.026 Y104.552 F9000.000
G1 E5.00000 F2400.000
;TYPE:Perimeter
G1 F1200.000
G1 X80.885 Y103.883 E0.03414
G1 X81.481 Y103.477 E0.02259
G1 X82.096 Y103.100 E0.02264
G1 X82.731 Y102.752 E0.02270
G1 X83.385 Y102.435 E0.02277
G1 X84.055 Y102.149 E0.02286
G1 X84.742 Y101.894 E0.02296
G1 X85.444 Y101.673 E0.02309
G1 X86.161 Y101.486 E0.02322
G1 X86.891 Y101.334 E0.02339
G1 X87.634 Y101.218 E0.02357
G1 X88.389 Y101.139 E0.02381
G1 X89.229 Y101.096 E0.02637
G1 X89.924 Y101.095 E0.02181
G1 X90.689 Y101.131 E0.02399
G1 X91.443 Y101.205 E0.02377
G1 X92.187 Y101.316 E0.02357
G1 X92.918 Y101.463 E0.02339
G1 X93.636 Y101.645 E0.02322
G1 X94.340 Y101.861 E0.02309
G1 X95.028 Y102.111 E0.02296
G1 X95.701 Y102.392 E0.02286
G1 X96.356 Y102.705 E0.02277
G1 X96.993 Y103.049 E0.02270
G1 X97.612 Y103.422 E0.02264
G1 X98.210 Y103.823 E0.02259
G1 X98.788 Y104.252 E0.02255
G1 X99.343 Y104.707 E0.02253
G1 X99.876 Y105.188 E0.02251
G1 X100.386 Y105.694 E0.02251
G1 X100.870 Y106.224 E0.02251
G1 X101.330 Y106.776 E0.02253
G1 X101.762 Y107.351 E0.02255
G1 X102.168 Y107.946 E0.02259
G1 X102.545 Y108.562 E0.02264
G1 X102.892 Y109.197 E0.02270
G1 X103.210 Y109.850 E0.02277
G1 X103.496 Y110.521 E0.02286
G1 X103.750 Y111.208 E0.02296
G1 X103.972 Y111.910 E0.02309
G1 X104.159 Y112.627 E0.02322
G1 X104.311 Y113.357 E0.02339
G1 X104.427 Y114.099 E0.02357
G1 X104.506 Y114.853 E0.02377
G1 X104.547 Y115.618 E0.02401
G1 X104.550 Y116.390 E0.02420
G1 X104.514 Y117.154 E0.02401
G1 X104.440 Y117.909 E0.02377
G1 X104.329 Y118.652 E0.02357
G1 X104.182 Y119.384 E0.02339
G1 X104.000 Y120.102 E0.02322
G1 X103.784 Y120.805 E0.02308
G1 X103.534 Y121.494 E0.02296
G1 X103.252 Y122.166 E0.02286
G1 X102.939 Y122.822 E0.02277
G1 X102.596 Y123.459 E0.02270
G1 X102.223 Y124.077 E0.02264
G1 X101.822 Y124.676 E0.02259
G1 X101.393 Y125.253 E0.02255
G1 X100.938 Y125.809 E0.02253
G1 X100.457 Y126.342 E0.02251
G1 X99.951 Y126.851 E0.02251
G1 X99.421 Y127.336 E0.02251
G1 X98.869 Y127.795 E0.02253
G1 X98.294 Y128.228 E0.02255
G1 X97.699 Y128.633 E0.02259
G1 X97.083 Y129.010 E0.02264
G1 X96.448 Y129.358 E0.02270
G1 X95.795 Y129.676 E0.02277
G1 X95.124 Y129.962 E0.02286
G1 X94.438 Y130.216 E0.02296
G1 X93.735 Y130.437 E0.02308
G1 X93.019 Y130.624 E0.02322
G1 X92.288 Y130.776 E0.02338
G1 X91.546 Y130.892 E0.02357
G1 X90.792 Y130.971 E0.02377
G1 X90.027 Y131.013 E0.02401
G1 X89.255 Y131.015 E0.02420
G1 X88.491 Y130.979 E0.02401
G1 X87.736 Y130.905 E0.02377
G1 X86.993 Y130.794 E0.02357
G1 X86.261 Y130.647 E0.02339
G1 X85.543 Y130.465 E0.02323
G1 X84.840 Y130.249 E0.02309
G1 X84.151 Y130.000 E0.02296
G1 X83.479 Y129.718 E0.02286
G1 X82.823 Y129.405 E0.02277
G1 X82.186 Y129.062 E0.02270
G1 X81.568 Y128.689 E0.02264
G1 X80.969 Y128.288 E0.02259
G1 X80.392 Y127.859 E0.02255
G1 X79.836 Y127.404 E0.02253
G1 X79.303 Y126.922 E0.02251
G1 X78.794 Y126.417 E0.02251
G1 X78.309 Y125.887 E0.02251
G1 X77.850 Y125.334 E0.02253
G1 X77.417 Y124.760 E0.02255
G1 X77.012 Y124.164 E0.02259
G1 X76.635 Y123.549 E0.02264
G1 X76.287 Y122.914 E0.02270
G1 X75.969 Y122.261 E0.02277
G1 X75.683 Y121.590 E0.02286
G1 X75.429 Y120.903 E0.02296
G1 X75.208 Y120.201 E0.02309
G1 X75.021 Y119.484 E0.02322
G1 X74.869 Y118.754 E0.02339
G1 X74.753 Y118.011 E0.02357
G1 X74.673 Y117.257 E0.02377
G1 X74.632 Y116.493 E0.02401
G1 X74.629 Y115.721 E0.02420
G1 X74.665 Y114.956 E0.02401
G1 X74.739 Y114.202 E0.02377
G1 X74.850 Y113.458 E0.02357
G1 X74.997 Y112.727 E0.02339
G1 X75.180 Y112.009 E0.02323
G1 X75.396 Y111.305 E0.02309
G1 X75.645 Y110.617 E0.02296
G1 X75.927 Y109.944 E0.02286
G1 X76.240 Y109.289 E0.02277
G1 X76.583 Y108.652 E0.02270
G1 X76.956 Y108.033 E0.02264
G1 X77.357 Y107.435 E0.02259
G1 X77.786 Y106.857 E0.02255
G1 X78.242 Y106.302 E0.02253
G1 X78.723 Y105.769 E0.02251
G1 X79.228 Y105.259 E0.02251
G1 X79.980 Y104.590 E0.03155
G1 X80.221 Y104.880 F9000.000
;TYPE:External perimeter
G1 F1200.000
G1 X80.545 Y104.611 E0.01320
G1 X81.105 Y104.189 E0.02199
G1 X81.685 Y103.794 E0.02202
G1 X82.286 Y103.427 E0.02207
G1 X82.904 Y103.088 E0.02212
G1 X83.541 Y102.778 E0.02220
G1 X84.195 Y102.499 E0.02228
G1 X84.864 Y102.251 E0.02238
G1 X85.549 Y102.036 E0.02250
G1 X86.247 Y101.853 E0.02264
G1 X86.959 Y101.705 E0.02279
G1 X87.683 Y101.592 E0.02297
G1 X88.418 Y101.515 E0.02319
G1 X89.239 Y101.473 E0.02576
G1 X89.916 Y101.472 E0.02124
G1 X90.661 Y101.507 E0.02340
G1 X91.397 Y101.579 E0.02318
G1 X92.122 Y101.687 E0.02297
G1 X92.834 Y101.831 E0.02279
G1 X93.534 Y102.008 E0.02264
G1 X94.220 Y102.219 E0.02250
G1 X94.891 Y102.462 E0.02238
G1 X95.547 Y102.737 E0.02228
G1 X96.185 Y103.042 E0.02220
G1 X96.807 Y103.376 E0.02212
G1 X97.409 Y103.740 E0.02207
G1 X97.993 Y104.131 E0.02202
G1 X98.556 Y104.549 E0.02199
G1 X99.097 Y104.993 E0.02196
G1 X99.617 Y105.462 E0.02195
G1 X100.114 Y105.955 E0.02194
G1 X100.586 Y106.472 E0.02195
G1 X101.034 Y107.010 E0.02196
G1 X101.456 Y107.570 E0.02199
G1 X101.851 Y108.151 E0.02202
G1 X102.218 Y108.751 E0.02207
G1 X102.557 Y109.370 E0.02212
G1 X102.867 Y110.007 E0.02220
G1 X103.146 Y110.660 E0.02228
G1 X103.394 Y111.330 E0.02238
G1 X103.609 Y112.014 E0.02250
G1 X103.791 Y112.713 E0.02264
G1 X103.939 Y113.424 E0.02279
G1 X104.053 Y114.148 E0.02297
G1 X104.130 Y114.883 E0.02318
G1 X104.170 Y115.629 E0.02341
G1 X104.173 Y116.381 E0.02360
G1 X104.138 Y117.127 E0.02341
G1 X104.065 Y117.863 E0.02318
G1 X103.957 Y118.587 E0.02297
G1 X103.814 Y119.300 E0.02279
G1 X103.637 Y120.000 E0.02264
G1 X103.426 Y120.686 E0.02250
G1 X103.183 Y121.357 E0.02238
G1 X102.908 Y122.012 E0.02228
G1 X102.603 Y122.651 E0.02219
G1 X102.268 Y123.272 E0.02212
G1 X101.905 Y123.875 E0.02207
G1 X101.514 Y124.458 E0.02202
G1 X101.096 Y125.021 E0.02199
G1 X100.652 Y125.563 E0.02196
G1 X100.183 Y126.083 E0.02195
G1 X99.690 Y126.579 E0.02194
G1 X99.173 Y127.052 E0.02195
G1 X98.635 Y127.499 E0.02196
G1 X98.075 Y127.921 E0.02199
G1 X97.494 Y128.316 E0.02202
G1 X96.894 Y128.684 E0.02207
G1 X96.275 Y129.023 E0.02212
G1 X95.638 Y129.332 E0.02219
G1 X94.985 Y129.611 E0.02228
G1 X94.315 Y129.859 E0.02238
G1 X93.631 Y130.075 E0.02250
G1 X92.932 Y130.257 E0.02264
G1 X92.221 Y130.405 E0.02279
G1 X91.497 Y130.518 E0.02297
G1 X90.762 Y130.595 E0.02318
G1 X90.016 Y130.636 E0.02341
G1 X89.264 Y130.638 E0.02360
G1 X88.518 Y130.603 E0.02341
G1 X87.782 Y130.531 E0.02318
G1 X87.058 Y130.423 E0.02297
G1 X86.345 Y130.280 E0.02279
G1 X85.645 Y130.102 E0.02264
G1 X84.959 Y129.891 E0.02250
G1 X84.288 Y129.648 E0.02238
G1 X83.633 Y129.374 E0.02228
G1 X82.994 Y129.069 E0.02220
G1 X82.373 Y128.734 E0.02212
G1 X81.770 Y128.371 E0.02207
G1 X81.187 Y127.980 E0.02202
G1 X80.624 Y127.562 E0.02199
G1 X80.082 Y127.118 E0.02196
G1 X79.562 Y126.649 E0.02195
G1 X79.066 Y126.155 E0.02194
G1 X78.593 Y125.639 E0.02195
G1 X78.146 Y125.100 E0.02196
G1 X77.724 Y124.540 E0.02199
G1 X77.328 Y123.960 E0.02202
G1 X76.961 Y123.360 E0.02207
G1 X76.622 Y122.741 E0.02212
G1 X76.313 Y122.104 E0.02220
G1 X76.033 Y121.451 E0.02228
G1 X75.786 Y120.781 E0.02238
G1 X75.570 Y120.097 E0.02250
G1 X75.388 Y119.398 E0.02264
G1 X75.240 Y118.686 E0.02279
G1 X75.127 Y117.963 E0.02297
G1 X75.049 Y117.227 E0.02318
G1 X75.009 Y116.482 E0.02341
G1 X75.007 Y115.729 E0.02360
G1 X75.042 Y114.984 E0.02341
G1 X75.114 Y114.248 E0.02318
G1 X75.222 Y113.523 E0.02297
G1 X75.365 Y112.811 E0.02279
G1 X75.543 Y112.111 E0.02264
G1 X75.753 Y111.425 E0.02250
G1 X75.997 Y110.754 E0.02238
G1 X76.271 Y110.098 E0.02228
G1 X76.576 Y109.460 E0.02220
G1 X76.911 Y108.838 E0.02212
G1 X77.274 Y108.236 E0.02207
G1 X77.665 Y107.652 E0.02202
G1 X78.084 Y107.089 E0.02199
G1 X78.527 Y106.548 E0.02196
G1 X78.996 Y106.028 E0.02195
G1 X79.490 Y105.531 E0.02194
G1 X80.175 Y104.919 E0.02883
G1 X80.146 Y104.487 F9000.000
G1 E-3.50000 F3600.000
;WIPE_START
G1 F7200.000
G1 X80.545 Y104.611 E-0.22843
G1 X81.105 Y104.189 E-0.33308
G1 X81.685 Y103.794 E-0.33361
G1 X82.286 Y103.427 E-0.33430
G1 X82.647 Y103.229 E-0.19558
;WIPE_END
G1 E-0.07500 F3600.000
G1 X103.099 Y97.284 F9000.000
G1 E5.00000 F2400.000
;TYPE:Perimeter
G1 F1200.000
G1 X103.023 Y96.981 E0.00980
G1 X102.984 Y96.671 E0.00980
G1 X102.984 Y96.358 E0.00980
G1 X103.023 Y96.048 E0.00980
G1 X103.099 Y95.745 E0.00980
G1 X103.212 Y95.454 E0.00980
G1 X103.348 Y95.200 E0.00904
G1 X103.538 Y94.925 E0.01046
G1 X103.751 Y94.692 E0.00989
G1 X103.988 Y94.489 E0.00980
G1 X104.249 Y94.316 E0.00980
G1 X104.529 Y94.177 E0.00980
G1 X104.823 Y94.073 E0.00980
G1 X105.129 Y94.006 E0.00980
G1 X105.416 Y93.980 E0.00904
G1 X105.749 Y93.986 E0.01046
G1 X106.061 Y94.035 E0.00989
G1 X106.362 Y94.120 E0.00980
G1 X106.649 Y94.242 E0.00980
G1 X106.920 Y94.399 E0.00980
G1 X107.170 Y94.587 E0.00980
G1 X107.394 Y94.804 E0.00980
G1 X107.590 Y95.048 E0.00980
G1 X107.754 Y95.314 E0.00980
G1 X107.885 Y95.598 E0.00980
G1 X107.980 Y95.895 E0.00980
G1 X108.037 Y96.203 E0.00980
G1 X108.056 Y96.515 E0.00980
G1 X108.037 Y96.826 E0.00980
G1 X107.980 Y97.134 E0.00980
G1 X107.885 Y97.431 E0.00980
G1 X107.765 Y97.693 E0.00904
G1 X107.592 Y97.979 E0.01046
G1 X107.394 Y98.225 E0.00989
G1 X107.170 Y98.442 E0.00980
G1 X106.920 Y98.631 E0.00980
G1 X106.649 Y98.787 E0.00980
G1 X106.362 Y98.909 E0.00980
G1 X106.061 Y98.994 E0.00980
G1 X105.752 Y99.042 E0.00980
G1 X105.440 Y99.052 E0.00980
G1 X105.129 Y99.023 E0.00980
G1 X104.823 Y98.956 E0.00980
G1 X104.529 Y98.852 E0.00980
G1 X104.249 Y98.713 E0.00980
G1 X103.988 Y98.540 E0.00980
G1 X103.751 Y98.337 E0.00980
G1 X103.540 Y98.106 E0.00980
G1 X103.374 Y97.871 E0.00904
G1 X103.213 Y97.578 E0.01046
G1 X103.121 Y97.340 E0.00801
G1 X103.472 Y97.204 F9000.000
;TYPE:External perimeter
G1 F1200.000
G1 X103.394 Y96.912 E0.00949
G1 X103.362 Y96.648 E0.00834
G1 X103.362 Y96.381 E0.00834
G1 X103.394 Y96.117 E0.00834
G1 X103.459 Y95.860 E0.00834
G1 X103.555 Y95.611 E0.00834
G1 X103.670 Y95.397 E0.00764
G1 X103.834 Y95.161 E0.00901
G1 X104.014 Y94.963 E0.00837
G1 X104.216 Y94.790 E0.00834
G1 X104.438 Y94.643 E0.00834
G1 X104.676 Y94.525 E0.00834
G1 X104.927 Y94.436 E0.00834
G1 X105.187 Y94.379 E0.00834
G1 X105.429 Y94.357 E0.00764
G1 X105.716 Y94.363 E0.00901
G1 X105.980 Y94.404 E0.00837
G1 X106.236 Y94.477 E0.00834
G1 X106.481 Y94.580 E0.00834
G1 X106.711 Y94.713 E0.00834
G1 X106.924 Y94.874 E0.00834
G1 X107.115 Y95.059 E0.00834
G1 X107.281 Y95.266 E0.00834
G1 X107.422 Y95.492 E0.00834
G1 X107.533 Y95.734 E0.00834
G1 X107.613 Y95.988 E0.00834
G1 X107.662 Y96.249 E0.00834
G1 X107.679 Y96.515 E0.00834
G1 X107.662 Y96.780 E0.00834
G1 X107.613 Y97.042 E0.00834
G1 X107.533 Y97.295 E0.00834
G1 X107.431 Y97.516 E0.00764
G1 X107.282 Y97.762 E0.00901
G1 X107.115 Y97.970 E0.00837
G1 X106.924 Y98.155 E0.00834
G1 X106.711 Y98.316 E0.00834
G1 X106.481 Y98.449 E0.00834
G1 X106.236 Y98.552 E0.00834
G1 X105.980 Y98.625 E0.00834
G1 X105.717 Y98.666 E0.00834
G1 X105.451 Y98.674 E0.00834
G1 X105.187 Y98.650 E0.00834
G1 X104.927 Y98.593 E0.00834
G1 X104.676 Y98.504 E0.00834
G1 X104.438 Y98.386 E0.00834
G1 X104.216 Y98.239 E0.00834
G1 X104.014 Y98.066 E0.00834
G1 X103.835 Y97.869 E0.00834
G1 X103.694 Y97.670 E0.00764
G1 X103.556 Y97.419 E0.00901
G1 X103.494 Y97.260 E0.00534
G1 X103.176 Y97.143 F9000.000
G1 E-3.50000 F3600.000
;WIPE_START
G1 F7200.000
G1 X103.394 Y96.912 E-0.17206
G1 X103.362 Y96.648 E-0.12636
G1 X103.362 Y96.381 E-0.12636
G1 X103.394 Y96.117 E-0.12636
G1 X103.459 Y95.860 E-0.12636
G1 X103.555 Y95.611 E-0.12636
G1 X103.670 Y95.397 E-0.11571
G1 X103.834 Y95.161 E-0.13643
G1 X104.014 Y94.963 E-0.12686
G1 X104.216 Y94.790 E-0.12636
G1 X104.419 Y94.656 E-0.11580
;WIPE_END
G1 E-0.07500 F3600.000
G1 X75.056 Y96.515 F9000.000
G1 E5.00000 F2400.000
;TYPE:Perimeter
G1 F1200.000
G1 X75.037 Y96.826 E0.00980
G1 X74.980 Y97.134 E0.00980
G1 X74.885 Y97.431 E0.00980
G1 X74.754 Y97.715 E0.00980
G1 X74.590 Y97.981 E0.00980
G1 X74.394 Y98.225 E0.00980
G1 X74.170 Y98.442 E0.00980
G1 X73.920 Y98.631 E0.00980
G1 X73.649 Y98.787 E0.00980
G1 X73.362 Y98.909 E0.00980
G1 X73.061 Y98.994 E0.00980
G1 X72.752 Y99.042 E0.00980
G1 X72.440 Y99.052 E0.00980
G1 X72.129 Y99.023 E0.00980
G1 X71.823 Y98.956 E0.00980
G1 X71.529 Y98.852 E0.00980
G1 X71.249 Y98.713 E0.00980
G1 X70.988 Y98.540 E0.00980
G1 X70.751 Y98.337 E0.00980
G1 X70.540 Y98.106 E0.00980
G1 X70.374 Y97.871 E0.00904
G1 X70.213 Y97.578 E0.01046
G1 X70.099 Y97.284 E0.00989
G1 X70.023 Y96.981 E0.00980
G1 X69.984 Y96.671 E0.00980
G1 X69.984 Y96.358 E0.00980
G1 X70.023 Y96.048 E0.00980
G1 X70.099 Y95.745 E0.00980
G1 X70.212 Y95.454 E0.00980
G1 X70.360 Y95.178 E0.00980
G1 X70.540 Y94.923 E0.00980
G1 X70.751 Y94.692 E0.00980
G1 X70.988 Y94.489 E0.00980
G1 X71.249 Y94.316 E0.00980
G1 X71.529 Y94.177 E0.00980
G1 X71.823 Y94.073 E0.00980
G1 X72.129 Y94.006 E0.00980
G1 X72.416 Y93.980 E0.00904
G1 X72.749 Y93.986 E0.01046
G1 X73.061 Y94.035 E0.00989
G1 X73.362 Y94.120 E0.00980
G1 X73.649 Y94.242 E0.00980
G1 X73.920 Y94.399 E0.00980
G1 X74.170 Y94.587 E0.00980
G1 X74.394 Y94.804 E0.00980
G1 X74.590 Y95.048 E0.00980
G1 X74.754 Y95.314 E0.00980
G1 X74.885 Y95.598 E0.00980
